Antu/mimetypes/64/application-x-arc.svg

<?xml version="1.0" encoding="UTF-8" standalone="no"?>
<svg
   xmlns:osb="http://www.openswatchbook.org/uri/2009/osb"
   xmlns:dc="http://purl.org/dc/elements/1.1/"
   xmlns:cc="http://creativecommons.org/ns#"
   xmlns:rdf="http://www.w3.org/1999/02/22-rdf-syntax-ns#"
   xmlns:svg="http://www.w3.org/2000/svg"
   xmlns="http://www.w3.org/2000/svg"
   xmlns:xlink="http://www.w3.org/1999/xlink"
   xmlns:sodipodi="http://sodipodi.sourceforge.net/DTD/sodipodi-0.dtd"
   xmlns:inkscape="http://www.inkscape.org/namespaces/inkscape"
   width="64"
   viewBox="0 0 64 64"
   height="64"
   id="svg2"
   version="1.1"
   inkscape:version="0.91 r13725"
   sodipodi:docname="application-x-arc.svg"
   inkscape:export-filename="E:\Usuarios\David\Desktop\android.png"
   inkscape:export-xdpi="90"
   inkscape:export-ydpi="90">
  <metadata
     id="metadata14">
    <rdf:RDF>
      <cc:Work
         rdf:about="">
        <dc:format>image/svg+xml</dc:format>
        <dc:type
           rdf:resource="http://purl.org/dc/dcmitype/StillImage" />
        <dc:title />
      </cc:Work>
    </rdf:RDF>
  </metadata>
  <defs
     id="defs12">
    <linearGradient
       osb:paint="gradient"
       id="linearGradient4207">
      <stop
         id="stop3371"
         offset="0"
         style="stop-color:#3498db;stop-opacity:1;" />
      <stop
         id="stop3373"
         offset="1"
         style="stop-color:#3498db;stop-opacity:0;" />
    </linearGradient>
    <linearGradient
       inkscape:collect="always"
       xlink:href="#linearGradient4422-91"
       id="linearGradient4182"
       x1="-74.929466"
       y1="52.199436"
       x2="-75.259552"
       y2="2.3564887"
       gradientUnits="userSpaceOnUse"
       gradientTransform="matrix(1.0749904,0,0,1.0292896,56.688954,-0.01528526)" />
    <linearGradient
       id="linearGradient4422-91">
      <stop
         id="stop4424-33"
         offset="0"
         style="stop-color:#77b971;stop-opacity:1" />
      <stop
         id="stop4426-7"
         offset="1"
         style="stop-color:#8edd82;stop-opacity:1" />
    </linearGradient>
  </defs>
  <sodipodi:namedview
     pagecolor="#747474"
     bordercolor="#666666"
     borderopacity="1"
     objecttolerance="10"
     gridtolerance="10"
     guidetolerance="10"
     inkscape:pageopacity="1"
     inkscape:pageshadow="2"
     inkscape:window-width="1366"
     inkscape:window-height="687"
     id="namedview10"
     showgrid="false"
     inkscape:zoom="5.2716365"
     inkscape:cx="51.914569"
     inkscape:cy="25.321278"
     inkscape:window-x="0"
     inkscape:window-y="0"
     inkscape:window-maximized="1"
     inkscape:current-layer="g4227"
     inkscape:snap-bbox="true"
     inkscape:bbox-nodes="true"
     inkscape:object-nodes="true"
     borderlayer="false"
     showguides="false"
     inkscape:snap-nodes="true"
     inkscape:object-paths="false"
     inkscape:showpageshadow="false"
     showborder="true">
    <inkscape:grid
       type="xygrid"
       id="grid4160"
       visible="true" />
    <sodipodi:guide
       position="28.888657,63.404975"
       orientation="0,35.2"
       id="guide6108" />
    <sodipodi:guide
       position="54,55.679691"
       orientation="51.200004,0"
       id="guide6112" />
    <sodipodi:guide
       position="58.527669,62"
       orientation="0,1"
       id="guide6114"
       inkscape:label=""
       inkscape:color="rgb(0,0,255)" />
    <sodipodi:guide
       position="10,4"
       orientation="-56,0"
       id="guide6116" />
    <sodipodi:guide
       position="11,4"
       orientation="-2.8421709e-014,0"
       id="guide6118" />
    <sodipodi:guide
       position="12,62"
       orientation="0,35.2"
       id="guide6120" />
    <sodipodi:guide
       position="52,2"
       orientation="0,-40"
       id="guide6126" />
    <sodipodi:guide
       position="12,62"
       orientation="0,35.2"
       id="guide6138" />
    <sodipodi:guide
       position="55,3"
       orientation="0,-40"
       id="guide6156" />
    <sodipodi:guide
       position="53,4.3973202"
       orientation="-56,0"
       id="guide6158" />
    <sodipodi:guide
       position="43,48"
       orientation="22,0"
       id="guide4240" />
    <sodipodi:guide
       position="43,26"
       orientation="0,-22"
       id="guide4242" />
    <sodipodi:guide
       position="21,26"
       orientation="-22,0"
       id="guide4244" />
  </sodipodi:namedview>
  <g
     id="g4186"
     transform="translate(56.391766,-0.17677665)">
    <g
       inkscape:transform-center-y="-9.4924686"
       inkscape:transform-center-x="5.4653607"
       inkscape:label="Capa 1"
       id="layer1-4"
       transform="translate(-509.70748,-515.64674)">
      <g
         id="layer1-3-65"
         inkscape:label="Capa 1"
         transform="translate(0.41988239,0.03484499)" />
    </g>
    <g
       id="g4227"
       transform="translate(0,0.26550102)">
      <rect
         style="opacity:1;fill:url(#linearGradient4182);fill-opacity:1;stroke:none;stroke-width:0.30000001;stroke-linecap:round;stroke-linejoin:round;stroke-miterlimit:4;stroke-dasharray:none;stroke-dashoffset:0;stroke-opacity:1"
         id="rect4174"
         width="44"
         height="60.531002"
         x="-46.391766"
         y="1.6457746"
         ry="2.5" />
      <g
         transform="matrix(0.84688321,0,0,0.84688321,-417.04979,-419.33873)"
         id="layer1-5"
         inkscape:label="Capa 1">
        <g
           id="g4414"
           transform="matrix(1.6650602,0,0,1.6650602,368.70404,-1177.0758)">
          <g
             transform="matrix(0.42549858,0,0,0.42549858,-116.82388,804.06163)"
             id="layer1-0"
             inkscape:label="Capa 1">
            <path
               style="opacity:1;fill:#345132;fill-opacity:1;stroke:none;stroke-width:2.79999995;stroke-miterlimit:4;stroke-dasharray:none;stroke-opacity:0.55026455"
               d="M 23.099609,16.265625 C 22.49021,16.265625 22,16.755835 22,17.365234 l 0,19.800782 c 0,0.609399 0.49021,1.099609 1.099609,1.099609 l 17.59961,0 c 0.609399,0 1.101562,-0.49021 1.101562,-1.099609 l 0,-19.800782 c 0,-0.609399 -0.492163,-1.099609 -1.101562,-1.099609 l -17.59961,0 z m 8.228516,0.611328 1.222656,0 c 0.270771,0 0.488281,0.21751 0.488281,0.488281 l 0,0.123047 c 0,0.270771 -0.21751,0.488281 -0.488281,0.488281 l -1.222656,0 c -0.270771,0 -0.488281,-0.21751 -0.488281,-0.488281 l 0,-0.123047 c 0,-0.270771 0.21751,-0.488281 0.488281,-0.488281 z m -0.0039,1.589844 1.222656,0 c 0.270771,0 0.488281,0.219463 0.488281,0.490234 l 0,0.121094 c 0,0.270771 -0.21751,0.490234 -0.488281,0.490234 l -1.222656,0 c -0.270771,0 -0.490235,-0.219463 -0.490235,-0.490234 l 0,-0.121094 c 0,-0.270771 0.219464,-0.490234 0.490235,-0.490234 z m -0.01367,1.572265 1.222656,0 c 0.270771,0 0.488281,0.217511 0.488281,0.488282 l 0,0.123047 c 0,0.270771 -0.21751,0.488281 -0.488281,0.488281 l -1.222656,0 c -0.270771,0 -0.490235,-0.21751 -0.490235,-0.488281 l 0,-0.123047 c 0,-0.270771 0.219464,-0.488282 0.490235,-0.488282 z m 0.02344,1.636719 1.222657,0 c 0.270771,0 0.488281,0.21751 0.488281,0.488281 l 0,0.123047 c 0,0.270772 -0.21751,0.488282 -0.488281,0.488282 l -1.222657,0 c -0.270771,0 -0.488281,-0.21751 -0.488281,-0.488282 l 0,-0.123047 c 0,-0.270771 0.21751,-0.488281 0.488281,-0.488281 z m 0,1.607422 1.222657,0 c 0.270771,0 0.488281,0.21751 0.488281,0.488281 l 0,0.123047 c 0,0.270771 -0.21751,0.488281 -0.488281,0.488281 l -1.222657,0 c -0.270771,0 -0.488281,-0.21751 -0.488281,-0.488281 l 0,-0.123047 c 0,-0.270771 0.21751,-0.488281 0.488281,-0.488281 z m 0,1.644531 1.222657,0 c 0.270771,0 0.488281,0.219464 0.488281,0.490235 l 0,0.121093 c 0,0.270772 -0.21751,0.490235 -0.488281,0.490235 l -1.222657,0 c -0.270771,0 -0.488281,-0.219463 -0.488281,-0.490235 l 0,-0.121093 c 0,-0.270771 0.21751,-0.490235 0.488281,-0.490235 z m 0.09766,1.664063 0.970703,0 c 0.192703,0 0.347656,0.156207 0.347656,0.349609 l 0,0.695313 0.539062,1.589843 c 0.150849,0.442839 0.07853,0.934794 -0.193359,1.316407 -0.271893,0.380914 -0.712649,0.609375 -1.179687,0.609375 -0.466945,0 -0.90779,-0.228461 -1.179688,-0.609375 -0.271893,-0.381613 -0.344252,-0.873222 -0.193359,-1.316407 l 0.539062,-1.589843 0,-0.695313 c 0,-0.193363 0.156906,-0.349609 0.34961,-0.349609 z m -0.04297,2.328125 -0.179688,0.533203 c -0.0775,0.228822 -0.04062,0.482831 0.09961,0.679687 0.279812,0.392965 0.937028,0.392965 1.216797,0 0.140217,-0.196856 0.177137,-0.451211 0.09961,-0.679687 l -0.179688,-0.533203 -1.05664,0 z"
               transform="matrix(1.8181804,0,0,1.8181804,350.57147,474.22438)"
               id="rect4319"
               inkscape:connector-curvature="0" />
            <g
               transform="translate(-0.71741557,0.01714041)"
               inkscape:label="Capa 1"
               id="layer1-7"
               style="fill:#ffffff;fill-opacity:1" />
          </g>
        </g>
      </g>
    </g>
  </g>
</svg>

<?xml version="1.0" encoding="UTF-8" standalone="no"?>
<svg
   xmlns:osb="http://www.openswatchbook.org/uri/2009/osb"
   xmlns:dc="http://purl.org/dc/elements/1.1/"
   xmlns:cc="http://creativecommons.org/ns#"
   xmlns:rdf="http://www.w3.org/1999/02/22-rdf-syntax-ns#"
   xmlns:svg="http://www.w3.org/2000/svg"
   xmlns="http://www.w3.org/2000/svg"
   xmlns:xlink="http://www.w3.org/1999/xlink"
   xmlns:sodipodi="http://sodipodi.sourceforge.net/DTD/sodipodi-0.dtd"
   xmlns:inkscape="http://www.inkscape.org/namespaces/inkscape"
   width="64"
   viewBox="0 0 64 64"
   height="64"
   id="svg2"
   version="1.1"
   inkscape:version="0.91 r13725"
   sodipodi:docname="application-x-arc.svg"
   inkscape:export-filename="E:\Usuarios\David\Desktop\android.png"
   inkscape:export-xdpi="90"
   inkscape:export-ydpi="90">
  <metadata
     id="metadata14">
    <rdf:RDF>
      <cc:Work
         rdf:about="">
        <dc:format>image/svg+xml</dc:format>
        <dc:type
           rdf:resource="http://purl.org/dc/dcmitype/StillImage" />
        <dc:title />
      </cc:Work>
    </rdf:RDF>
  </metadata>
  <defs
     id="defs12">
    <linearGradient
       osb:paint="gradient"
       id="linearGradient4207">
      <stop
         id="stop3371"
         offset="0"
         style="stop-color:#3498db;stop-opacity:1;" />
      <stop
         id="stop3373"
         offset="1"
         style="stop-color:#3498db;stop-opacity:0;" />
    </linearGradient>
    <linearGradient
       inkscape:collect="always"
       xlink:href="#linearGradient4422-91"
       id="linearGradient4182"
       x1="-74.929466"
       y1="52.199436"
       x2="-75.259552"
       y2="2.3564887"
       gradientUnits="userSpaceOnUse"
       gradientTransform="matrix(1.0749904,0,0,1.0292896,56.688954,-0.01528455)" />
    <linearGradient
       id="linearGradient4422-91">
      <stop
         id="stop4424-33"
         offset="0"
         style="stop-color:#77b971;stop-opacity:1" />
      <stop
         id="stop4426-7"
         offset="1"
         style="stop-color:#8edd82;stop-opacity:1" />
    </linearGradient>
  </defs>
  <sodipodi:namedview
     pagecolor="#747474"
     bordercolor="#666666"
     borderopacity="1"
     objecttolerance="10"
     gridtolerance="10"
     guidetolerance="10"
     inkscape:pageopacity="1"
     inkscape:pageshadow="2"
     inkscape:window-width="1366"
     inkscape:window-height="633"
     id="namedview10"
     showgrid="false"
     inkscape:zoom="21.086546"
     inkscape:cx="30.74574"
     inkscape:cy="44.164041"
     inkscape:window-x="0"
     inkscape:window-y="33"
     inkscape:window-maximized="1"
     inkscape:current-layer="g4227"
     inkscape:snap-bbox="true"
     inkscape:bbox-nodes="true"
     inkscape:object-nodes="true"
     borderlayer="false"
     showguides="false"
     inkscape:snap-nodes="true"
     inkscape:object-paths="false"
     inkscape:showpageshadow="false"
     showborder="true">
    <inkscape:grid
       type="xygrid"
       id="grid4160"
       visible="true" />
    <sodipodi:guide
       position="28.888657,63.404975"
       orientation="0,35.2"
       id="guide6108" />
    <sodipodi:guide
       position="54,55.679691"
       orientation="51.200004,0"
       id="guide6112" />
    <sodipodi:guide
       position="58.527669,62"
       orientation="0,1"
       id="guide6114"
       inkscape:label=""
       inkscape:color="rgb(0,0,255)" />
    <sodipodi:guide
       position="10,4"
       orientation="-56,0"
       id="guide6116" />
    <sodipodi:guide
       position="11,4"
       orientation="-2.8421709e-014,0"
       id="guide6118" />
    <sodipodi:guide
       position="12,62"
       orientation="0,35.2"
       id="guide6120" />
    <sodipodi:guide
       position="52,2"
       orientation="0,-40"
       id="guide6126" />
    <sodipodi:guide
       position="12,62"
       orientation="0,35.2"
       id="guide6138" />
    <sodipodi:guide
       position="55,3"
       orientation="0,-40"
       id="guide6156" />
    <sodipodi:guide
       position="53,4.3973202"
       orientation="-56,0"
       id="guide6158" />
    <sodipodi:guide
       position="43,48"
       orientation="22,0"
       id="guide4240" />
    <sodipodi:guide
       position="43,26"
       orientation="0,-22"
       id="guide4242" />
    <sodipodi:guide
       position="21,26"
       orientation="-22,0"
       id="guide4244" />
  </sodipodi:namedview>
  <g
     id="g4186"
     transform="translate(56.391766,-0.17677665)">
    <g
       inkscape:transform-center-y="-9.4924686"
       inkscape:transform-center-x="5.4653607"
       inkscape:label="Capa 1"
       id="layer1-4"
       transform="translate(-509.70748,-515.64674)">
      <g
         id="layer1-3-65"
         inkscape:label="Capa 1"
         transform="translate(0.41988239,0.03484499)" />
    </g>
    <g
       id="g4227"
       transform="translate(0,0.26550102)">
      <rect
         style="opacity:1;fill:#345132;fill-opacity:1;stroke:none;stroke-width:0.185;stroke-linecap:round;stroke-linejoin:round;stroke-miterlimit:4;stroke-dasharray:none;stroke-dashoffset:0;stroke-opacity:1"
         id="rect4162"
         width="44"
         height="7.6992903"
         x="-46.391766"
         y="54.477486"
         ry="2.5" />
      <rect
         style="opacity:1;fill:url(#linearGradient4182);fill-opacity:1;stroke:none;stroke-width:0.30000001;stroke-linecap:round;stroke-linejoin:round;stroke-miterlimit:4;stroke-dasharray:none;stroke-dashoffset:0;stroke-opacity:1"
         id="rect4174"
         width="44"
         height="52.831711"
         x="-46.391766"
         y="1.6457753"
         ry="2.5" />
      <rect
         style="opacity:1;fill:#345132;fill-opacity:1;stroke:none;stroke-width:0.185;stroke-linecap:round;stroke-linejoin:round;stroke-miterlimit:4;stroke-dasharray:none;stroke-dashoffset:0;stroke-opacity:1"
         id="rect4184"
         width="44"
         height="7.9118414"
         x="-46.391766"
         y="51.264462"
         ry="0" />
      <g
         transform="matrix(0.81954967,0,0,0.81954967,-5.1342835,10.82183)"
         id="text4161"
         style="font-style:normal;font-weight:normal;font-size:9.36996746px;line-height:125%;font-family:sans-serif;letter-spacing:0px;word-spacing:0px;fill:#ffffff;fill-opacity:1;stroke:none;stroke-width:1px;stroke-linecap:butt;stroke-linejoin:miter;stroke-opacity:1">
        <g
           id="text4269"
           style="font-style:normal;font-weight:normal;font-size:13.75px;line-height:125%;font-family:sans-serif;letter-spacing:0px;word-spacing:0px;fill:#ffffff;fill-opacity:1;stroke:none;stroke-width:1px;stroke-linecap:butt;stroke-linejoin:miter;stroke-opacity:1">
          <path
             inkscape:connector-curvature="0"
             id="path4226"
             style="font-style:normal;font-variant:normal;font-weight:normal;font-stretch:normal;font-size:10px;font-family:'Product Sans';-inkscape-font-specification:'Product Sans';fill:#ffffff;fill-opacity:1"
             d="m -28.647082,58.966465 q -0.78,0 -1.31,-0.45 -0.52,-0.45 -0.52,-1.19 0,-0.8 0.62,-1.25 0.62,-0.46 1.53,-0.46 0.81,0 1.33,0.3 l 0,-0.14 q 0,-0.54 -0.37,-0.86 -0.37,-0.33 -0.91,-0.33 -0.4,0 -0.73,0.19 -0.32,0.19 -0.44,0.52 l -0.84,-0.36 q 0.17,-0.44 0.67,-0.81 0.5,-0.38 1.32,-0.38 0.94,0 1.56,0.55 0.62,0.55 0.62,1.55 l 0,2.96 -0.88,0 0,-0.68 -0.04,0 q -0.55,0.84 -1.61,0.84 z m 0.15,-0.84 q 0.57,0 1.03,-0.42 0.47,-0.43 0.47,-1.01 -0.39,-0.32 -1.17,-0.32 -0.67,0 -1.01,0.29 -0.34,0.29 -0.34,0.68 0,0.36 0.31,0.57 0.31,0.21 0.71,0.21 z" />
          <path
             inkscape:connector-curvature="0"
             id="path4228"
             style="font-style:normal;font-variant:normal;font-weight:normal;font-stretch:normal;font-size:10px;font-family:'Product Sans';-inkscape-font-specification:'Product Sans';fill:#ffffff;fill-opacity:1"
             d="m -24.159894,58.806465 -0.92,0 0,-4.9 0.88,0 0,0.8 0.04,0 q 0.14,-0.4 0.57,-0.66 0.44,-0.26 0.85,-0.26 0.41,0 0.69,0.12 l -0.35,0.86 q -0.18,-0.07 -0.49,-0.07 -0.5,0 -0.89,0.4 -0.38,0.39 -0.38,1.03 l 0,2.68 z" />
          <path
             inkscape:connector-curvature="0"
             id="path4230"
             style="font-style:normal;font-variant:normal;font-weight:normal;font-stretch:normal;font-size:10px;font-family:'Product Sans';-inkscape-font-specification:'Product Sans';fill:#ffffff;fill-opacity:1"
             d="m -19.500051,58.966465 q -1.1,0 -1.81,-0.74 -0.71,-0.75 -0.71,-1.87 0,-1.12 0.71,-1.86 0.71,-0.75 1.81,-0.75 0.82,0 1.36,0.4 0.54,0.4 0.79,1.01 l -0.84,0.35 q -0.38,-0.92 -1.37,-0.92 -0.61,0 -1.08,0.5 -0.46,0.5 -0.46,1.27 0,0.77 0.46,1.27 0.47,0.5 1.08,0.5 1.03,0 1.42,-0.92 l 0.82,0.35 q -0.25,0.6 -0.81,1.01 -0.55,0.4 -1.37,0.4 z" />
        </g>
      </g>
      <g
         transform="matrix(0.84688321,0,0,0.84688321,-417.04979,-419.33873)"
         id="layer1-5"
         inkscape:label="Capa 1">
        <g
           id="g4414"
           transform="matrix(1.5263052,0,0,1.5263052,376.49864,-1040.1735)">
          <g
             transform="matrix(0.42549858,0,0,0.42549858,-116.82388,804.06163)"
             id="layer1-0"
             inkscape:label="Capa 1">
            <path
               style="opacity:1;fill:#345132;fill-opacity:1;stroke:none;stroke-width:2.79999995;stroke-miterlimit:4;stroke-dasharray:none;stroke-opacity:0.55026455"
               d="M 23.099609 16.265625 C 22.49021 16.265625 22 16.755835 22 17.365234 L 22 37.166016 C 22 37.775415 22.49021 38.265625 23.099609 38.265625 L 40.699219 38.265625 C 41.308618 38.265625 41.800781 37.775415 41.800781 37.166016 L 41.800781 17.365234 C 41.800781 16.755835 41.308618 16.265625 40.699219 16.265625 L 23.099609 16.265625 z M 31.328125 16.876953 L 32.550781 16.876953 C 32.821552 16.876953 33.039062 17.094463 33.039062 17.365234 L 33.039062 17.488281 C 33.039062 17.759052 32.821552 17.976562 32.550781 17.976562 L 31.328125 17.976562 C 31.057354 17.976562 30.839844 17.759052 30.839844 17.488281 L 30.839844 17.365234 C 30.839844 17.094463 31.057354 16.876953 31.328125 16.876953 z M 31.324219 18.466797 L 32.546875 18.466797 C 32.817646 18.466797 33.035156 18.68626 33.035156 18.957031 L 33.035156 19.078125 C 33.035156 19.348896 32.817646 19.568359 32.546875 19.568359 L 31.324219 19.568359 C 31.053448 19.568359 30.833984 19.348896 30.833984 19.078125 L 30.833984 18.957031 C 30.833984 18.68626 31.053448 18.466797 31.324219 18.466797 z M 31.310547 20.039062 L 32.533203 20.039062 C 32.803974 20.039062 33.021484 20.256573 33.021484 20.527344 L 33.021484 20.650391 C 33.021484 20.921162 32.803974 21.138672 32.533203 21.138672 L 31.310547 21.138672 C 31.039776 21.138672 30.820312 20.921162 30.820312 20.650391 L 30.820312 20.527344 C 30.820312 20.256573 31.039776 20.039062 31.310547 20.039062 z M 31.333984 21.675781 L 32.556641 21.675781 C 32.827412 21.675781 33.044922 21.893291 33.044922 22.164062 L 33.044922 22.287109 C 33.044922 22.557881 32.827412 22.775391 32.556641 22.775391 L 31.333984 22.775391 C 31.063213 22.775391 30.845703 22.557881 30.845703 22.287109 L 30.845703 22.164062 C 30.845703 21.893291 31.063213 21.675781 31.333984 21.675781 z M 31.333984 23.283203 L 32.556641 23.283203 C 32.827412 23.283203 33.044922 23.500713 33.044922 23.771484 L 33.044922 23.894531 C 33.044922 24.165302 32.827412 24.382812 32.556641 24.382812 L 31.333984 24.382812 C 31.063213 24.382812 30.845703 24.165302 30.845703 23.894531 L 30.845703 23.771484 C 30.845703 23.500713 31.063213 23.283203 31.333984 23.283203 z M 31.333984 24.927734 L 32.556641 24.927734 C 32.827412 24.927734 33.044922 25.147198 33.044922 25.417969 L 33.044922 25.539062 C 33.044922 25.809834 32.827412 26.029297 32.556641 26.029297 L 31.333984 26.029297 C 31.063213 26.029297 30.845703 25.809834 30.845703 25.539062 L 30.845703 25.417969 C 30.845703 25.147198 31.063213 24.927734 31.333984 24.927734 z M 31.431641 26.591797 L 32.402344 26.591797 C 32.595047 26.591797 32.75 26.748004 32.75 26.941406 L 32.75 27.636719 L 33.289062 29.226562 C 33.439911 29.669401 33.367596 30.161356 33.095703 30.542969 C 32.82381 30.923883 32.383054 31.152344 31.916016 31.152344 C 31.449071 31.152344 31.008226 30.923883 30.736328 30.542969 C 30.464435 30.161356 30.392076 29.669747 30.542969 29.226562 L 31.082031 27.636719 L 31.082031 26.941406 C 31.082031 26.748043 31.238937 26.591797 31.431641 26.591797 z M 31.388672 28.919922 L 31.208984 29.453125 C 31.131489 29.681947 31.16836 29.935956 31.308594 30.132812 C 31.588406 30.525777 32.245622 30.525777 32.525391 30.132812 C 32.665608 29.935956 32.702528 29.681601 32.625 29.453125 L 32.445312 28.919922 L 31.388672 28.919922 z "
               transform="matrix(1.8181804,0,0,1.8181804,350.57147,474.22438)"
               id="rect4319" />
            <g
               transform="translate(-0.71741557,0.01714041)"
               inkscape:label="Capa 1"
               id="layer1-7"
               style="fill:#ffffff;fill-opacity:1" />
          </g>
        </g>
      </g>
    </g>
  </g>
</svg>
